X: 133
T: Those Hills I Trod Upon
C: Teton Sioux band 1911-1914
N: Derived from sioux132a.krn
O: South Dakota, U.S.A.
N: Teton Sioux Music by Frances Densmore, 1918
Z: transcribed to **kern format by Craig Sapp
L: 1/8
M: 3/4
Q: 1/4=58
K: C clef=bass
%%linebreak <none>
C3/ C/ [I:setbarnb 1]| 
E2E2D3/ E/ | 
C> A,C2A,3/ C/ ||  
[M:2/4]C> E (E/ C3/) | 
A, A, G,3/ E,/ ||  
[M:3/4]G,> G, E,> A, A,3/ C/ ||  
[M:2/4]A,> A, G,3/ G,/ | 
G,> E, E,/ E,3/ | 
E, E, E,3/ E,/ | 
E,2-E,3/ G,/ ||  
[M:3/4]E,> G,G,2E,3/ E,/ | 
[M:2/4]E,4 | 
E,4 |]  



